assets/img/twitter.svg

<svg width="17" height="14" viewBox="0 0 17 14" fill="none" xmlns="http://www.w3.org/2000/svg">
<path d="M17 1.72894C16.3678 2.00625 15.6942 2.19006 14.9919 2.27931C15.7144 1.84794 16.2658 1.17006 16.5251 0.353C15.8514 0.754625 15.1077 1.03831 14.3151 1.19663C13.6754 0.515563 12.7638 0.09375 11.7693 0.09375C9.83981 0.09375 8.28644 1.65988 8.28644 3.57981C8.28644 3.85606 8.30981 4.12169 8.36719 4.37456C5.46975 4.23325 2.90594 2.84456 1.18362 0.729125C0.882937 1.25081 0.706563 1.84794 0.706563 2.49075C0.706563 3.69775 1.32812 4.76769 2.25463 5.38713C1.69469 5.3765 1.14538 5.21394 0.68 4.95788C0.68 4.9685 0.68 4.98231 0.68 4.99612C0.68 6.68975 1.88806 8.0965 3.47225 8.42056C3.18856 8.49813 2.87937 8.53531 2.5585 8.53531C2.33538 8.53531 2.11012 8.52256 1.89869 8.47581C2.35025 9.856 3.63163 10.8707 5.15525 10.9036C3.9695 11.8312 2.46394 12.3901 0.834063 12.3901C0.54825 12.3901 0.274125 12.3773 0 12.3422C1.54381 13.3378 3.37344 13.9062 5.3465 13.9062C11.7597 13.9062 15.266 8.59375 15.266 3.98887C15.266 3.83481 15.2607 3.68606 15.2533 3.53838C15.9449 3.0475 16.5261 2.43444 17 1.72894Z" fill="#F7F7EE"/>
</svg>

<svg xmlns="http://www.w3.org/2000/svg" width="17" height="14" fill="none"><path fill="#F7F7EE" d="M17 1.729a7.266 7.266 0 0 1-2.008.55A3.466 3.466 0 0 0 16.525.353a6.966 6.966 0 0 1-2.21.844A3.484 3.484 0 0 0 8.286 3.58c0 .276.024.542.081.795A9.865 9.865 0 0 1 1.184.729a3.49 3.49 0 0 0 1.071 4.658 3.442 3.442 0 0 1-1.575-.43v.04c0 1.693 1.208 3.1 2.792 3.424a3.478 3.478 0 0 1-.913.114c-.224 0-.449-.012-.66-.06a3.518 3.518 0 0 0 3.256 2.429 7.003 7.003 0 0 1-4.32 1.486A6.52 6.52 0 0 1 0 12.342a9.811 9.811 0 0 0 5.346 1.564c6.414 0 9.92-5.312 9.92-9.917 0-.154-.005-.303-.013-.45A6.954 6.954 0 0 0 17 1.728Z"/></svg>
